svg/fluentui-system-icons/ic_fluent_insert_20_filled.svg

<svg width="20" height="20" viewBox="0 0 20 20" fill="none" xmlns="http://www.w3.org/2000/svg">
<path d="M4 4C4 2.89543 4.89543 2 6 2H14C15.1046 2 16 2.89543 16 4V6C16 7.10457 15.1046 8 14 8H6C4.89543 8 4 7.10457 4 6V4ZM4 16C4 17.1046 4.89543 18 6 18H14C15.1046 18 16 17.1046 16 16V14C16 12.8954 15.1046 12 14 12H6C4.89543 12 4 12.8954 4 14V16ZM2.5 9.5C2.22386 9.5 2 9.72386 2 10C2 10.2761 2.22386 10.5 2.5 10.5H17.5C17.7761 10.5 18 10.2761 18 10C18 9.72386 17.7761 9.5 17.5 9.5H2.5Z" fill="#212121"/>
</svg>

<svg xmlns="http://www.w3.org/2000/svg" width="20" height="20"><path d="M4 4a2 2 0 0 1 2-2h8a2 2 0 0 1 2 2v2a2 2 0 0 1-2 2H6a2 2 0 0 1-2-2V4Zm0 12a2 2 0 0 0 2 2h8a2 2 0 0 0 2-2v-2a2 2 0 0 0-2-2H6a2 2 0 0 0-2 2v2ZM2.5 9.5a.5.5 0 0 0 0 1h15a.5.5 0 0 0 0-1h-15Z"/></svg>
